X: 2373
M: C
L: 1/8
K: G
(uBc) |\
dBGB d(gfg) | dBGB d(gfg) |\
dBed cBAG | FAGE D2 (Bc) |\
dBGB d(gfg) | dBGB d(gfg) |\
edcB AGFA | G2B2G2 :|
|: (ucB) |\
gbgd BdBG | CB,CD EDCB, |\


